modules/zondicons/icons/pause-outline.svg

<?xml version="1.0" encoding="UTF-8" standalone="no"?>
<svg width="20px" height="20px" viewBox="0 0 20 20" version="1.1" xmlns="http://www.w3.org/2000/svg" xmlns:xlink="http://www.w3.org/1999/xlink">
    <!-- Generator: Sketch 3.7.2 (28276) - http://www.bohemiancoding.com/sketch -->
    <title>pause-outline</title>
    <desc>Created with Sketch.</desc>
    <defs></defs>
    <g id="Page-1" stroke="none" stroke-width="1" fill="none" fill-rule="evenodd">
        <g id="pause-outline" fill="#000000">
            <path d="M2.92893219,17.0710678 C6.83417511,20.9763107 13.1658249,20.9763107 17.0710678,17.0710678 C20.9763107,13.1658249 20.9763107,6.83417511 17.0710678,2.92893219 C13.1658249,-0.976310729 6.83417511,-0.976310729 2.92893219,2.92893219 C-0.976310729,6.83417511 -0.976310729,13.1658249 2.92893219,17.0710678 L2.92893219,17.0710678 Z M15.6568542,15.6568542 C18.7810486,12.5326599 18.7810486,7.46734008 15.6568542,4.34314575 C12.5326599,1.21895142 7.46734008,1.21895142 4.34314575,4.34314575 C1.21895142,7.46734008 1.21895142,12.5326599 4.34314575,15.6568542 C7.46734008,18.7810486 12.5326599,18.7810486 15.6568542,15.6568542 Z M7,6 L9,6 L9,14 L7,14 L7,6 Z M11,6 L13,6 L13,14 L11,14 L11,6 Z" id="Combined-Shape"></path>
        </g>
    </g>
</svg>

<svg width="20" height="20" viewBox="0 0 20 20" xmlns="http://www.w3.org/2000/svg"><path d="M2.929 17.071c3.905 3.905 10.237 3.905 14.142 0 3.905-3.905 3.905-10.237 0-14.142-3.905-3.905-10.237-3.905-14.142 0-3.905 3.905-3.905 10.237 0 14.142zm12.728-1.414A8 8 0 1 0 4.343 4.343a8 8 0 0 0 11.314 11.314zM7 6h2v8H7V6zm4 0h2v8h-2V6z" fill="#000" fill-rule="evenodd"/></svg>
